X:6926
T:Hawthorn, The
T:Bunch of Haws, A
R:slip jig
D:Michael Tubridy: The Eagle's Whistle
Z:id:hn-slipjig-49
M:9/8
K:G
dBG GBG AFD|dBG GBd e2g|dBG GBG AFD|gbg faf e2e:|
|:def ~g3 edB|def ~g3 a2a|1 def ~g3 edB|gbg faf e2e:|2 bag agf gfe|dBG GBd e2g||
